X: 26
T: Po qian ge
L: 1/16
M: 2/4
K: G
D2 D2 [I:setbarnb 1]| 
D2> F2 D2 F G | 
A2> B2 A d B2 | 
A d c2 B2 A2- | 
A4D2 D2 | 
D2> F2 D2 F G | 
A2> B2 A d c d | 
B2 A2 G2 E B | 
A8- | 
A8- | 
A8 | 
z4D2 D2 | 
D2> F2 D2 F G | 
A2> d2 d c B2 | 
A d c d B2 A2 | 
G2 =F2 E2 D2 | 
C4z2 C D | 
E2> A2 G A G =F | 
E2 D2 C2 A, E | 
D8- | 
D8- | 
D8 |]

@@@ Tune index: 8694
